img/social-icons/facebook.svg

<svg width="20" height="20" viewBox="0 0 20 20" fill="none" xmlns="http://www.w3.org/2000/svg">
<path d="M20 18.9101C20 19.5095 19.5095 20 18.9101 20H13.7875V12.2616H16.4033L16.7847 9.26431H13.7875V7.35695C13.7875 6.48501 14.0054 5.88556 15.2589 5.88556H16.8392V3.16076C16.5668 3.10627 15.6403 3.05177 14.4959 3.05177C12.2071 3.05177 10.6267 4.46866 10.6267 7.02997V9.26431H8.0109V12.2616H10.6267V20H1.08992C0.490463 20 0 19.5095 0 18.9101V1.08992C0 0.490463 0.490463 0 1.08992 0H18.9101C19.5095 0 20 0.490463 20 1.08992V18.9101Z" fill="#292929"/>
</svg>

<svg width="20" height="20" fill="none" xmlns="http://www.w3.org/2000/svg"><path d="M20 18.91c0 .6-.49 1.09-1.09 1.09h-5.123v-7.738h2.616l.382-2.998h-2.998V7.357c0-.872.218-1.471 1.472-1.471h1.58V3.16c-.272-.055-1.199-.11-2.343-.11-2.289 0-3.87 1.418-3.87 3.979v2.234H8.012v2.998h2.616V20H1.09C.49 20 0 19.51 0 18.91V1.09C0 .49.49 0 1.09 0h17.82c.6 0 1.09.49 1.09 1.09v17.82z" fill="#292929"/></svg>
